img/cont-2.svg

<svg width="44" height="40" viewBox="0 0 44 40" fill="none" xmlns="http://www.w3.org/2000/svg">
<circle cx="20" cy="20" r="20" fill="#F5E9EA"/>
<path d="M35.4163 21.79V19.54C35.4171 18.0193 34.905 16.5428 33.9627 15.3492C33.0205 14.1556 31.7031 13.3147 30.2238 12.9625C30.235 12.9189 30.2438 12.8746 30.25 12.83V9.875C30.25 9.54348 30.1183 9.22554 29.8839 8.99112C29.6495 8.7567 29.3315 8.625 29 8.625C28.6685 8.625 28.3506 8.7567 28.1161 8.99112C27.8817 9.22554 27.75 9.54348 27.75 9.875V12.83C27.7562 12.8746 27.765 12.9189 27.7763 12.9625C26.2969 13.3147 24.9796 14.1556 24.0373 15.3492C23.0951 16.5428 22.5829 18.0193 22.5838 19.54V21.79C22.5838 24.7725 20.25 25.5175 20.25 27.0087C20.25 27.75 20.25 28.5 20.9225 28.5H37.0775C37.75 28.5 37.75 27.75 37.75 27.0087C37.75 25.5175 35.4163 24.7725 35.4163 21.79Z" fill="#DA2B36"/>
<path d="M18.8325 20.79C18.501 20.79 18.1831 20.6583 17.9486 20.4239C17.7142 20.1895 17.5825 19.8715 17.5825 19.54C17.5889 16.5761 18.7124 13.7235 20.7288 11.5513C20.954 11.3074 21.2669 11.1631 21.5986 11.1499C21.9304 11.1368 22.2537 11.256 22.4975 11.4813C22.7414 11.7065 22.8857 12.0194 22.8988 12.3511C22.912 12.6828 22.7928 13.0062 22.5675 13.25C20.9768 14.9615 20.0894 17.2096 20.0825 19.5462C20.0809 19.8767 19.9484 20.193 19.7142 20.4261C19.48 20.6592 19.163 20.79 18.8325 20.79Z" fill="#F0989F"/>
<path d="M39.1675 20.79C38.836 20.79 38.5181 20.6583 38.2836 20.4239C38.0492 20.1895 37.9175 19.8715 37.9175 19.54C37.909 17.2056 37.0218 14.9599 35.4325 13.25C35.2184 13.0045 35.1085 12.6852 35.1263 12.3599C35.1442 12.0346 35.2882 11.7292 35.5279 11.5086C35.7676 11.288 36.0839 11.1696 36.4095 11.1788C36.7352 11.1879 37.0443 11.3238 37.2713 11.5575C39.2877 13.7298 40.4111 16.5824 40.4175 19.5462C40.4159 19.8767 40.2834 20.193 40.0492 20.4261C39.815 20.6592 39.498 20.79 39.1675 20.79Z" fill="#F0989F"/>
<path d="M25.0288 29.75C25.3604 30.5288 25.9136 31.1929 26.6197 31.6597C27.3258 32.1265 28.1536 32.3753 29 32.3753C29.8465 32.3753 30.6742 32.1265 31.3803 31.6597C32.0864 31.1929 32.6397 30.5288 32.9713 29.75H25.0288Z" fill="#DA2B36"/>
</svg>

<svg width="44" height="40" fill="none" xmlns="http://www.w3.org/2000/svg"><circle cx="20" cy="20" r="20" fill="#F5E9EA"/><path d="M35.416 21.79v-2.25a6.757 6.757 0 0 0-5.192-6.577c.011-.044.02-.088.026-.133V9.875a1.25 1.25 0 0 0-2.5 0v2.955c.006.045.015.089.026.133a6.758 6.758 0 0 0-5.192 6.577v2.25c0 2.983-2.334 3.727-2.334 5.219 0 .741 0 1.491.672 1.491h16.155c.673 0 .673-.75.673-1.491 0-1.492-2.334-2.236-2.334-5.219Z" fill="#DA2B36"/><path d="M18.832 20.79a1.25 1.25 0 0 1-1.25-1.25 11.78 11.78 0 0 1 3.147-7.989 1.251 1.251 0 1 1 1.838 1.699 9.289 9.289 0 0 0-2.485 6.296 1.25 1.25 0 0 1-1.25 1.244ZM39.167 20.79a1.25 1.25 0 0 1-1.25-1.25 9.289 9.289 0 0 0-2.485-6.29 1.25 1.25 0 0 1 1.84-1.693 11.78 11.78 0 0 1 3.145 7.99 1.25 1.25 0 0 1-1.25 1.243Z" fill="#F0989F"/><path d="M25.029 29.75a4.316 4.316 0 0 0 7.942 0H25.03Z" fill="#DA2B36"/></svg>
